packages/gestalt-icons-android/vr-theme/ic_vr_board_gestalt.svg

<svg width="24" height="24" viewBox="0 0 24 24" fill="none" xmlns="http://www.w3.org/2000/svg">
<path fill-rule="evenodd" clip-rule="evenodd" d="M23 5C23 2.79086 21.2091 1 19 1L5 1C2.79086 1 1 2.79086 1 5L1 19C1 21.2091 2.79086 23 5 23H19C21.2091 23 23 21.2091 23 19V5ZM21 11V5C21 3.89543 20.1046 3 19 3L13 3L13 11L21 11ZM21 13L13 13V21H19C20.1046 21 21 20.1046 21 19V13ZM5 3L11 3L11 21H5C3.89543 21 3 20.1046 3 19L3 5C3 3.89543 3.89543 3 5 3Z" fill="black"/>
</svg>

<svg xmlns="http://www.w3.org/2000/svg" width="24" height="24"><path d="M23 5a4 4 0 0 0-4-4H5a4 4 0 0 0-4 4v14a4 4 0 0 0 4 4h14a4 4 0 0 0 4-4zm-10 6V3h6a2 2 0 0 1 2 2v6zm8 8a2 2 0 0 1-2 2h-6v-8h8zM5 3h6v18H5a2 2 0 0 1-2-2V5c0-1.1.9-2 2-2"/></svg>
